X:1
T:Gladiolus Rag
T:Gladiolus  Rag.
T:By SCOTT JOPLIN Composer of “Maple Leaf Rag”
T:Note:  Do not play this piece fast It is never right to play “Ragtime” fast. Composer.
T:Public Domain
T:Public Domain
T:Public Domain
T:Public Domain
T:Public Domain
C:Scott Joplin
Z:Public Domain
%%score { ( 1 3 ) | ( 2 4 ) }
L:1/8
Q:1/4=60
M:2/4
K:Ab
V:1 treble nm="Piano."
V:3 treble 
V:2 bass 
V:4 bass 
V:1
"^Slow march tempo." z |:!mf! z/ c'/a/f/ =d/e/A/B/ | _c/G/A/B/- B/(e/e'/_d'/) | %3
 z/ =c'/a/f/ =d/e/A/B/ | (_c/G/A/[GB]/-) [DGB]"^R.H."[I:staff +1](B,/=C/) | %5
 (=F,"^R.H."[I:staff -1][G-B-d] [GBc])[I:staff +1](B,/C/) | (F,[I:staff -1][G-B-f][GB=e]) z | %7
"_R.H."[I:staff +1] (F,,/G,,/A,,/C,/) (F,/G,/A,/C/) |[I:staff -1] (F/G/A/c/) (f/g/a/c'/) | %9
 [ff'][gg']/[ff']/- [ff']/[gg']/[ff']/[ff']/- | ([ff']/e'/c'/b/) a/e'd'/- | d'/(b/b'/a'/) a/c'f'/ | %12
 (e'/b/=b/c'/-) c'/(=d/e/)[Ff]/- | [Ff][Gg]/[Ff]/- [Ff]/[Gg]/[Ff]/[Ff]/- | [Ff]/(e/c/B/) A/ed/- | %15
 (d/B/b/a/) c/[Af]e/ |1 (A/B/)[GB] [CA] z :|2 (A/B/)[GB] [CA]!^!e |:!f! z/ (g/b/d'/) [gf']/e'd'/ | %19
 (e/g/b/[ege']/-) [ege']/[Gdg]/[Ada]/[Bdb]/ | [=B=d=b]/[cec'][Bdb]/ [cec'][Bdb]/[cec']/- | %21
 [cec']3 [ce] |!mf! [d=e]/[df][Bd]/- [Bd]2 | [d=e]/[df][Bd]/- [Bd]2 | [c=e]/[cf]g/ [cf]/(c/_e/a/ | %25
!<(! [cec']4)!<)! |!f! z/ (g/b/d'/) [gf']/e'd'/ | e/g/b/[ege']/- [ege']/[Gdg]/[Ada]/[Bdb]/ | %28
 [=B=d=b]/[cec'][c=ec']/- [cec']/[eg]/[cegc'] | [cfac'][cc']/f/ a/[cfac'][_dfc']/- | %30
 [dfc']>(b a/f/d) | [cec']>(b a/e/c) | [d=e]/[df]g/ ([df]/G/B/_e/) |1 A3 e :|2 A{/=d}e z2 || %35
!mf! z/ c'/a/f/ =d/e/A/B/ | _c/G/A/B/- B/(e/e'/_d'/) | z/ =c'/a/f/ =d/e/A/B/ | %38
 (_c/G/A/B/-) B"^R.H."[I:staff +1](B,/=C/) | %39
 (=F,"^R.H."[I:staff -1][G-B-d] [GBc])[I:staff +1](B,/C/) | (F,[I:staff -1][G-B-f][GB=e]) z | %41
"_R.H."[I:staff +1] (F,,/G,,/A,,/C,/) (F,/G,/A,/C/) |[I:staff -1] (F/G/A/c/) (f/g/a/c'/) | %43
 [ff'][gg']/[ff']/- [ff']/[gg']/[ff']/[ff']/- | ([ff']/e'/c'/b/ a/)e'd'/- | d'/(b/b'/a'/) a/c'f'/ | %46
 (e'/b/=b/c'/-) (c'/=d/e/[Ff]/-) | [Ff][Gg]/[Ff]/- [Ff]/[Gg]/[Ff]/[Ff]/- | ([Ff]/e/c/B/ A/)ed/- | %49
 d/(B/b/a/) c/[Af]e/ | (A/B/)[GB] [CA] ||[K:Db] [Aa] |: %52
!mp! [Adfa]/d/f/[Bdgb]/- [Bdgb]/[cc']/[dd']/[ee']/ | %53
 ([ff']/[aa']/[ff']/[ee']/ [dd']/[Bb]/[Aa]/[Ff]/) | f/eG/- G/f/e | e/dF/- F/e/d | %56
 (c/A/c/d/-) [EBd]/=E/[EBc] | (c/A/c/=B/-) [FAB][_FA_B] | (A/e/_f) [=Gdf][_Gde] | %59
 [Gce][Acea]/c/ e/[Acea][Ad=fa]/- | [Adfa]/d/f/[Bdgb]/- [Bdgb]/[cc']/[dd']/[ee']/ | %61
 ([ff']/[aa']/[ff']/[ee']/ [dd']/[Bb]/[Aa]/[Ff]/) |!<(! F/[=Acf]F/ [Acf]!<)!F/[Bdf]/- | %63
!<(! [Bdf]/[=A=a]/[Bb]/[cc']/ [dd']/[ee']/[f_c'f']!<)! |!mf! [gbf']>(e' d'/b/g) | %65
 [faf']>(e' d'/a/f) | f/eG/- G/f/e |1 [FAd]2 [Acea]2 :|2 [FAd]3 !^![dfad'] |: %69
!f!"^sostenuto sempre" d'>d'- d'd'- | d'<d' d'b | a>a- aa- | a<a a=g | _g>g- gg- | g<g ge' | %75
 [eae']/[dad'][d=ec']/- [dec'][deb] | [dfa]3 !^![dfad'] | d'>d'- d'd'- | d'<d' d'b | a>a- aa- | %80
 a<a af | z/ (d/_F/__B/) _f/[_FA_c]d/- | (d/_F/__B/_f/ [=FAd=f]2) | f/eG/- G/f/e |1 %84
 [FAd]3 !^![dfad'] :|2 [FAd]2 !fermata![dfad'] |] %86
V:2
 [E,,E,] |: [A,,A,][E,A,C] [E,,E,][E,A,C] | ([F,,F,][_F,,_F,] [E,,E,])[E,G,D] | %3
 [A,,A,][E,A,C] [E,,E,][E,A,C] | ([F,,F,][_F,,_F,] [E,,E,])"_L.H."(B,,/=C,/) | %5
 =F,,"^L.H."[I:staff -1]F =E[I:staff +1](B,,/C,/) | (F,,DC) z | %7
"_L.H." (F,,,/G,,,/A,,,/C,,/) (F,,/G,,/A,,/C,/) | (F,/G,/A,/C/)[I:staff -1] (F/G/A/c/) | %9
[I:staff +1][K:treble] [=DFA=B][DFAB] [DFAB][DFAB] | [EAc][EAc] [_GAc][GAc] | %11
 [FAd][_FAd] [EAc][EAc] | [EGd][EGd] [EAc][EAc] | %13
[K:bass] [=D,F,A,=B,][D,F,A,B,] [D,F,A,B,][D,F,A,B,] | [E,A,C][E,A,C] [_G,A,C][G,A,C] | %15
 [F,A,D][_F,A,D] [E,A,C][E,A,C] |1 [=F,,=F,][E,,E,] [A,,A,][E,,E,] :|2 %17
 [=F,,=F,][E,,E,] [A,,A,]!^![=A,,=A,] |: [B,,B,][E,G,D] [E,,E,][E,G,D] | %19
 [G,,G,][E,G,D] [E,,E,][E,G,D] | [A,,A,][E,A,C] [E,,E,][E,A,C] | %21
 [A,,A,]/[G,,G,]/[A,,A,]/[C,C]/!>(! [E,E][=A,,=A,]!>)! | %22
 [B,,B,][E,G,D] [E,,E,]/[=E,,=E,]/[F,,F,]/[^F,,^F,]/ | %23
 [G,,G,][_E,G,D] [_E,,_E,]/[=E,,=E,]/[=F,,=F,]/[G,,G,]/ | [A,,A,][_E,A,C] [_E,,_E,][E,A,C] | %25
 [A,,A,]/[E,,E,]/[=E,,=E,]/[F,,F,]/ [^F,,^F,]/[G,,G,]/[A,,A,]/[=A,,=A,]/ | %26
 [B,,B,][E,G,D] [E,,E,][E,G,D] | [G,,G,][E,G,D] [E,,E,][E,G,D] | [A,,A,][E,A,C] [G,,G,][=E,B,C] | %29
 [F,,F,]([F,A,C] [F,,F,][_E,,_E,]) | ([D,,D,][F,A,D] [F,,F,][_F,,_F,]) | %31
 [E,,E,][E,A,C] [C,C][=A,,=A,] | [B,,B,][E,G,D] [E,,E,][E,G,D] |1 A,[E,,E,] [A,,A,][=A,,=A,] :|2 %34
 [_A,C] z{/=D} E[E,,E,] || [A,,A,][E,A,C] [E,,E,][E,A,C] | ([F,,F,][_F,,_F,] [E,,E,])[E,G,D] | %37
 [A,,A,][E,A,C] [E,,E,][E,A,C] | ([F,,F,][_F,,_F,] [E,,E,])"_L.H."(B,,/=C,/) | %39
 =F,,"^L.H."[I:staff -1]F =E[I:staff +1](B,,/C,/) | (F,,DC) z | %41
"_L.H." (F,,,/G,,,/A,,,/C,,/) (F,,/G,,/A,,/C,/) | (F,/G,/A,/C/)[I:staff -1] (F/G/A/c/) | %43
[I:staff +1][K:treble] [=DFA=B][DFAB] [DFAB][DFAB] | [EAc][EAc] [_GAc][GAc] | %45
 [FAd][_FAd] [EAc][EAc] | [EGd][EGd] [EAc][EAc] | %47
[K:bass] [=D,F,A,=B,][D,F,A,B,] [D,F,A,B,][D,F,A,B,] | [E,A,C][E,A,C] [_G,A,C][G,A,C] | %49
 [F,A,D][_F,A,D] [E,A,C][E,A,C] | [=F,,=F,][E,,E,] [A,,A,] ||[K:Db] z |: %52
!ped! [D,,D,][F,A,D]!ped-up!!ped! [G,,G,][G,B,D]!ped-up! | %53
!ped! [D,,D,][F,A,D] [F,,F,][F,A,D]!ped-up! | %54
!ped! [A,,,A,,][G,A,C]!ped-up!!ped! [C,,C,][G,A,C]!ped-up! | %55
!ped! [D,,D,][F,A,D]!ped-up!!ped! [D,,D,][B,,,B,,]!ped-up! | %56
!ped! [C,,C,][F,A,C]!ped-up!!ped! [=G,,=G,][C,,C,]!ped-up! | [F,,F,][_E,_E] [=D,=D][_D,_D] | %58
 [C,C][_C,_C] [B,,B,][__B,,__B,] | [A,,A,][G,,G,] [F,,F,][E,,E,] | %60
!ped! [D,,D,][F,A,D]!ped-up!!ped! [G,,G,][G,B,D]!ped-up! | %61
!ped! [D,,D,][F,A,D] [F,,F,][F,A,D]!ped-up! |!ped! [F,,F,][F,=A,CE] [C,C][F,A,CE]!ped-up! | %63
 [B,,B,][F,B,D] [B,,B,][_A,,_A,] |!ped! [G,,G,][B,DG]!ped-up!!ped! [B,,B,][__B,,__B,]!ped-up! | %65
!ped! [A,,A,][A,DF] [F,,F,][A,,A,]!ped-up! | %66
!ped! [A,,,A,,][G,A,C]!ped-up!!ped! [A,,,A,,][G,A,C]!ped-up! |1 %67
 [D,,D,][A,,A,]/[B,,B,]/- [B,,B,]/[A,,A,]/[G,,G,]/[E,,E,]/ :|2 %68
 [D,,D,]!<(!!^![D,D] !^![C,C]!^![_C,_C]!<)! |:"^legato" [B,,B,][B,DG] [G,,G,][=A,,=A,] | %70
 [B,,B,][B,DG] [B,,B,][G,,G,] | [F,,F,][A,DF] [A,DF][A,,,A,,] | [D,,D,][A,DF] [F,,F,][=E,,=E,] | %73
 [_E,,_E,][A,C_E] [A,,,A,,][=D,,=D,] | [E,,E,][A,CE] [A,,A,][G,,G,] | %75
 [F,,F,][A,DF] (=G,/B,/D/=E/) | F!^![D,D] !^![C,C]!^![_C,_C] | [B,,B,][B,DG] [G,,G,][=A,,=A,] | %78
 [B,,B,][B,DG] [B,,B,][G,,G,] | [F,,F,][A,DF] [A,DF][A,,,A,,] | [D,,D,][A,DF] [F,,F,][A,,A,] | %81
 [__B,,__B,][_F,B,D] [A,,A,][F,A,_C] | [__B,,__B,][_F,B,D] (A,,/D,/=F,/A,/) | %83
 A,,[G,A,C] [A,,,A,,][G,A,C] |1 [D,,D,]!^![D,D] !^![C,C]!^![_C,_C] :|2 [D,,D,]{/=G,,}A,,D,, |] %86
V:3
 x |: x4 | =D>[_DG]- [DG] z | x4 | =D>_D- x2 | x4 | x4 | x4 | x4 | x4 | x4 | x4 | x4 | x4 | x4 | %15
 x4 |1 =D_D x2 :|2 =D_D x2 |: x4 | x4 | x4 | x4 | x4 | x4 | x4 | x4 | x4 | x4 | x4 | x4 | x4 | x4 | %32
 x4 |1 x4 :|2 x4 || x4 | =D>[_DG]- [DG] z | x4 | =D>[_DG]- [DG] x | x4 | x4 | x4 | x4 | x4 | x4 | %45
 x4 | x4 | x4 | x4 | x4 | =D_D x ||[K:Db] x |: x4 | x4 | [Gc]>G G[Gc] | [FA]>F F[FB] | %56
 [FA]>[=EB]- x2 | [FA]>[FA]- x2 | E[A_c] x2 | x4 | x4 | x4 | x4 | x4 | x4 | x4 | [Gc]>G G[Gc] |1 %67
 x4 :|2 x4 |: d'/[dgb]d'/ [egb]d'/[fgb]/- | [fgb]/d'/[egb] [dgb][Bdg] | a/[Adf]a/ [Bdf]a/[cdf]/- | %72
 [cdf]/a/[Bdf] [Adf][=GBd] | g/[_Gce]g/ [Ace]g/[Bce]/- | [Bce][Ace] [Gce][eac'] | x4 | x4 | %77
 d'/[dgb]d'/ [egb]d'/[fgb]/- | [fgb]/d'/[egb] [dgb][Bdg] | a/[Adf]a/ [Bdf]a/[cdf]/- | %80
 [cdf]/a/[Bdf] [Adf][FAd] | x2 _f>d | x4 | [Gc]>G- G[Gc] |1 x4 :|2 x3 |] %86
V:4
 x |: x4 | x4 | x4 | x4 | x4 | x4 | x4 | x4 |[K:treble] x4 | x4 | x4 | x4 |[K:bass] x4 | x4 | x4 |1 %16
 x4 :|2 x4 |: x4 | x4 | x4 | x4 | x4 | x4 | x4 | x4 | x4 | x4 | x4 | x4 | x4 | x4 | x4 |1 C3 z :|2 %34
 x4 || x4 | x4 | x4 | x4 | x4 | x4 | x4 | x4 |[K:treble] x4 | x4 | x4 | x4 |[K:bass] x4 | x4 | x4 | %50
 x3 ||[K:Db] x |: x4 | x4 | x4 | x4 | x4 | x4 | x4 | x4 | x4 | x4 | x4 | x4 | x4 | x4 | x4 |1 %67
 x4 :|2 x4 |: x4 | x4 | x4 | x4 | x4 | x4 | x4 | x4 | x4 | x4 | x4 | x4 | x4 | x4 | x4 |1 x4 :|2 %85
 x3 |] %86

